console/logo_criteo.svg

<?xml version="1.0" encoding="UTF-8"?>
<svg fill="none" viewBox="0 0 32 32" xmlns="http://www.w3.org/2000/svg">
<path d="m7.66 19.601h-0.76054v-4.5399h0.76054v0.5553c0.27062-0.3873 0.7232-0.6066 1.2504-0.6066 0.08865 0 0.18197 0.0047 0.27062 0.0187l0.05599 0.0093v0.8119l-0.07932-0.0187c-0.13531-0.028-0.27062-0.042-0.40592-0.042-0.63923 0-1.0872 0.4713-1.0872 1.1478l-0.00466 2.6642z" fill="#2C2F33"/>
<path d="m16.502 19.591c0.7512 0 1.2924-0.2333 1.759-0.7558l0.042-0.0467-0.4852-0.5039-0.0467 0.0466c-0.3453 0.364-0.6625 0.5786-1.2644 0.5786-0.8446 0-1.3998-0.5459-1.4558-1.4231h3.4294l0.0047-0.0606c0.0093-0.126 0.0093-0.266 0.0093-0.2706 0-0.6206-0.1913-1.1852-0.5412-1.5958-0.3686-0.4339-0.8725-0.6625-1.4604-0.6625-1.3018 0-2.207 0.9891-2.207 2.4076v0.0326c-0.0046 1.3484 0.8865 2.2536 2.2163 2.2536zm-1.4091-2.7762c0.0747-0.6625 0.6859-1.1944 1.3951-1.1944 0.6579 0 1.1945 0.5272 1.2271 1.1944h-2.6222z" fill="#2C2F33"/>
<path d="m10.739 15.056h-0.76054v4.5445h0.76054v-4.5445z" fill="#2C2F33"/>
<path d="m13.352 19.652c-0.2333 0-0.5786-0.0233-0.8492-0.2332-0.2986-0.224-0.4479-0.6206-0.4479-1.1712v-4.2459h0.7605v1.0498h0.9892v0.7186h-0.9892v2.4775c0 0.5739 0.2006 0.6859 0.5272 0.6859 0.1307 0.0047 0.2613-0.0047 0.3873-0.0233l0.0747-0.014v0.6999l-0.0467 0.014c-0.1306 0.0326-0.2706 0.0466-0.4059 0.0419z" fill="#2C2F33"/>
<path d="m21.303 19.652c0.6158 0.0046 1.2084-0.238 1.6423-0.6719 0.448-0.4526 0.6906-1.0685 0.6859-1.7031 0.0093-0.6345-0.2379-1.2504-0.6859-1.703-0.9098-0.8958-2.3749-0.8958-3.2847 0-0.4479 0.4526-0.6906 1.0685-0.6812 1.703-0.0094 0.6393 0.2379 1.2505 0.6858 1.7077 0.4293 0.434 1.0219 0.6719 1.6378 0.6673zm0-4.0313c0.4245-0.0047 0.8305 0.1679 1.1198 0.4712 0.2846 0.3033 0.4432 0.7232 0.4432 1.1851 0 0.462-0.1586 0.8819-0.4432 1.1852-0.6019 0.6159-1.5911 0.6299-2.2117 0.028-0.0093-0.0094-0.0186-0.0187-0.0279-0.028-0.2847-0.3033-0.4433-0.7232-0.4433-1.1852 0-0.4619 0.1586-0.8818 0.4433-1.1851 0.2892-0.3033 0.6952-0.4759 1.1198-0.4712z" fill="#2C2F33"/>
<path d="m4.3425 19.652c-0.62056 0.0047-1.2131-0.2379-1.6564-0.6719-0.44792-0.4525-0.69521-1.0638-0.68588-1.703-0.00933-0.6346 0.23796-1.2504 0.68588-1.703 0.43859-0.434 1.0358-0.6766 1.6564-0.6719 0.66255 0 1.2411 0.2333 1.6657 0.6719l0.04199 0.042-0.46658 0.5552-0.04666-0.0513c-0.30795-0.3266-0.71854-0.4993-1.1945-0.4993-0.42459-0.0046-0.83519 0.168-1.1291 0.4713-0.28929 0.3033-0.44793 0.7232-0.44793 1.1851s0.15864 0.8818 0.44793 1.1851c0.29394 0.308 0.70454 0.4759 1.1291 0.4713 0.47125 0 0.88185-0.1727 1.1898-0.4946l0.04666-0.0513 0.46658 0.5505-0.04199 0.042c-0.41992 0.4433-0.99382 0.6719-1.661 0.6719z" fill="#2C2F33"/>
<path d="m10.357 13.176c-0.322 0.0046-0.58791-0.2567-0.59258-0.5833-0.00466-0.3219 0.25658-0.5879 0.58328-0.5925 0.3219-0.0047 0.5878 0.2566 0.5925 0.5832v0.0047c0 0.3266-0.2613 0.5879-0.5832 0.5879z" fill="url(#c)"/>
<path d="m29.417 19.652c-0.3219 0.0046-0.5879-0.2567-0.5925-0.5833-0.0047-0.3219 0.2566-0.5879 0.5832-0.5925 0.322-0.0047 0.5879 0.2566 0.5926 0.5832v0.0047c0 0.3266-0.2613 0.5879-0.5833 0.5879z" fill="url(#b)"/>
<path d="m27.756 18.789h-1.549c-0.4013 0-0.7233-0.3266-0.7233-0.7279v-4.5632c0-0.6578-0.5319-1.1851-1.1851-1.1851h-12.271v0.5273h12.201c0.4013 0 0.7232 0.3266 0.7232 0.7232v4.5632c0 0.6579 0.5319 1.1898 1.1852 1.1898h1.6143v-0.5273h0.0047z" fill="url(#a)"/>
<defs>
<linearGradient id="c" x1="5.5444" x2="31.82" y1="12.591" y2="12.591" gradientUnits="userSpaceOnUse">
<stop stop-color="#F68C21" offset="0"/>
<stop stop-color="#F16324" offset="1"/>
</linearGradient>
<linearGradient id="b" x1="5.5445" x2="31.82" y1="19.067" y2="19.067" gradientUnits="userSpaceOnUse">
<stop stop-color="#F68C21" offset="0"/>
<stop stop-color="#F16324" offset="1"/>
</linearGradient>
<linearGradient id="a" x1="5.5446" x2="31.82" y1="15.818" y2="15.818" gradientUnits="userSpaceOnUse">
<stop stop-color="#F68C21" offset="0"/>
<stop stop-color="#F16324" offset="1"/>
</linearGradient>
</defs>
</svg>

<svg width="32" height="32" viewBox="0 0 32 32" fill="none" xmlns="http://www.w3.org/2000/svg">
<path d="M7.65995 19.6007H6.89941V15.0608H7.65995V15.6161C7.93057 15.2288 8.38315 15.0095 8.91039 15.0095C8.99904 15.0095 9.09236 15.0142 9.18101 15.0282L9.237 15.0375V15.8494L9.15768 15.8307C9.02237 15.8027 8.88706 15.7887 8.75176 15.7887C8.11253 15.7887 7.66461 16.26 7.66461 16.9365L7.65995 19.6007Z" fill="#2C2F33"/>
<path d="M16.5017 19.5914C17.2529 19.5914 17.7941 19.3581 18.2607 18.8356L18.3027 18.7889L17.8175 18.285L17.7708 18.3316C17.4255 18.6956 17.1083 18.9102 16.5064 18.9102C15.6618 18.9102 15.1066 18.3643 15.0506 17.4871H18.48L18.4847 17.4265C18.494 17.3005 18.494 17.1605 18.494 17.1559C18.494 16.5353 18.3027 15.9707 17.9528 15.5601C17.5842 15.1262 17.0803 14.8976 16.4924 14.8976C15.1906 14.8976 14.2854 15.8867 14.2854 17.3052V17.3378C14.2808 18.6862 15.1719 19.5914 16.5017 19.5914ZM15.0926 16.8152C15.1673 16.1527 15.7785 15.6208 16.4877 15.6208C17.1456 15.6208 17.6822 16.148 17.7148 16.8152H15.0926Z" fill="#2C2F33"/>
<path d="M10.7393 15.0562H9.97876V19.6007H10.7393V15.0562Z" fill="#2C2F33"/>
<path d="M13.3523 19.652C13.119 19.652 12.7737 19.6287 12.5031 19.4188C12.2045 19.1948 12.0552 18.7982 12.0552 18.2476V14.0017H12.8157V15.0515H13.8049V15.7701H12.8157V18.2476C12.8157 18.8215 13.0163 18.9335 13.3429 18.9335C13.4736 18.9382 13.6042 18.9288 13.7302 18.9102L13.8049 18.8962V19.5961L13.7582 19.6101C13.6276 19.6427 13.4876 19.6567 13.3523 19.652Z" fill="#2C2F33"/>
<path d="M21.3029 19.6521C21.9187 19.6567 22.5113 19.4141 22.9452 18.9802C23.3932 18.5276 23.6358 17.9117 23.6311 17.2771C23.6404 16.6426 23.3932 16.0267 22.9452 15.5741C22.0354 14.6783 20.5703 14.6783 19.6605 15.5741C19.2126 16.0267 18.9699 16.6426 18.9793 17.2771C18.9699 17.9164 19.2172 18.5276 19.6651 18.9848C20.0944 19.4188 20.687 19.6567 21.3029 19.6521ZM21.3029 15.6208C21.7274 15.6161 22.1334 15.7887 22.4227 16.092C22.7073 16.3953 22.8659 16.8152 22.8659 17.2771C22.8659 17.7391 22.7073 18.159 22.4227 18.4623C21.8208 19.0782 20.8316 19.0922 20.211 18.4903C20.2017 18.4809 20.1924 18.4716 20.1831 18.4623C19.8984 18.159 19.7398 17.7391 19.7398 17.2771C19.7398 16.8152 19.8984 16.3953 20.1831 16.092C20.4723 15.7887 20.8783 15.6161 21.3029 15.6208Z" fill="#2C2F33"/>
<path d="M4.34251 19.6521C3.72195 19.6568 3.12939 19.4142 2.68613 18.9802C2.23821 18.5277 1.99092 17.9164 2.00025 17.2772C1.99092 16.6426 2.23821 16.0268 2.68613 15.5742C3.12472 15.1402 3.72195 14.8976 4.34251 14.9023C5.00506 14.9023 5.58363 15.1356 6.00822 15.5742L6.05021 15.6162L5.58363 16.1714L5.53697 16.1201C5.22902 15.7935 4.81843 15.6208 4.34251 15.6208C3.91792 15.6162 3.50732 15.7888 3.21338 16.0921C2.92409 16.3954 2.76545 16.8153 2.76545 17.2772C2.76545 17.7391 2.92409 18.159 3.21338 18.4623C3.50732 18.7703 3.91792 18.9382 4.34251 18.9336C4.81376 18.9336 5.22436 18.7609 5.5323 18.439L5.57896 18.3877L6.04554 18.9382L6.00355 18.9802C5.58363 19.4235 5.00973 19.6521 4.34251 19.6521Z" fill="#2C2F33"/>
<path d="M10.3568 13.1759C10.0348 13.1805 9.76889 12.9192 9.76422 12.5926C9.75956 12.2707 10.0208 12.0047 10.3475 12.0001C10.6694 11.9954 10.9353 12.2567 10.94 12.5833V12.588C10.94 12.9146 10.6787 13.1759 10.3568 13.1759Z" fill="url(#paint0_linear)"/>
<path d="M29.4168 19.6521C29.0949 19.6567 28.8289 19.3954 28.8243 19.0688C28.8196 18.7469 29.0809 18.4809 29.4075 18.4763C29.7295 18.4716 29.9954 18.7329 30.0001 19.0595V19.0642C30.0001 19.3908 29.7388 19.6521 29.4168 19.6521Z" fill="url(#paint1_linear)"/>
<path d="M27.7559 18.7888H26.2069C25.8056 18.7888 25.4836 18.4622 25.4836 18.0609V13.4977C25.4836 12.8399 24.9517 12.3126 24.2985 12.3126H12.0273V12.8399H24.2285C24.6298 12.8399 24.9517 13.1665 24.9517 13.5631V18.1263C24.9517 18.7842 25.4836 19.3161 26.1369 19.3161H27.7512V18.7888H27.7559Z" fill="url(#paint2_linear)"/>
<defs>
<linearGradient id="paint0_linear" x1="5.54442" y1="12.5908" x2="31.8202" y2="12.5908" gradientUnits="userSpaceOnUse">
<stop stop-color="#F68C21"/>
<stop offset="1" stop-color="#F16324"/>
</linearGradient>
<linearGradient id="paint1_linear" x1="5.54449" y1="19.0674" x2="31.8203" y2="19.0674" gradientUnits="userSpaceOnUse">
<stop stop-color="#F68C21"/>
<stop offset="1" stop-color="#F16324"/>
</linearGradient>
<linearGradient id="paint2_linear" x1="5.54461" y1="15.8182" x2="31.8204" y2="15.8182" gradientUnits="userSpaceOnUse">
<stop stop-color="#F68C21"/>
<stop offset="1" stop-color="#F16324"/>
</linearGradient>
</defs>
</svg>
